X:515
%%etbk:tnset id:244,pos:1,rep:3x,ant:
%%etbk:wsite http://comhaltas.ie/music/detail/comhaltaslive_266_5_joan_hanrahan_dymphna_osullivan
%%etbk:skill ?
%%etbk:pldat 2013-11-20T15:27,2013-11-16T15:50,2013-11-12T18:15,2013-11-06T18:23,2013-11-05T18:24,2013-09-29T14:36,2013-09-27T16:47,2013-09-26T15:46,2013-09-15T16:57
T: The Ewe
R: reel
Z: Piano Box Version by Martin Fleischmann
H: Created 2013-09-04 /  Last Modified 2013-09-05
M: 4/4
L: 1/8
K: Gmaj
!1!D!3!GGF !1!D!3!GG!1!E | !2!=F2 !3!AF !5!cFAF | !1!D!3!GG!2!F !1!G2 !4!e!5!g | !4!f!3!d!2!c!1!A !2!Bd!1!A!2!F |
DGGF DGGE | =F2 AF cFAF | DGGF G2 eg |1 fdcA BdAF :|2 fdcA BGBd ||
!5!g!3!g bg dgbg | !2!f2 af dfaf | !3!g2 bg dgbg | !4!agfa g2ga |
!5!bg!4!af !3!gf!1!d!4!e | !5!f!3!dc!1!A !2!Bd!1!A!2!B | !1!G!4!g!3!gf gbag |1 fdcA BGBd :|2 fdcA B2AF ||
